assets/bold/bank-bold.svg

<svg id="Flat" xmlns="http://www.w3.org/2000/svg" viewBox="0 0 256 256">
  <path d="M24.00244,108h20v48h-12a12,12,0,0,0,0,24h192a12,12,0,0,0,0-24h-12V108h20a11.99965,11.99965,0,0,0,6.28906-22.21973l-104-64a12.00145,12.00145,0,0,0-12.57812,0l-104,64A11.99965,11.99965,0,0,0,24.00244,108Zm44,0h24v48h-24Zm72,0v48h-24V108Zm48,48h-24V108h24Zm-60-109.91016L189.606,84H66.39893ZM252.00244,208a12.0006,12.0006,0,0,1-12,12h-224a12,12,0,0,1,0-24h224A12.0006,12.0006,0,0,1,252.00244,208Z"/>
</svg>

<svg xmlns="http://www.w3.org/2000/svg" viewBox="0 0 256 256"><path d="M24,108H44v48H32a12,12,0,0,0,0,24H224a12,12,0,0,0,0-24H212V108h20a12,12,0,0,0,6.3-22.2l-104-64a11.9,11.9,0,0,0-12.6,0l-104,64A12,12,0,0,0,24,108Zm44,0H92v48H68Zm72,0v48H116V108Zm48,48H164V108h24ZM128,46.1,189.6,84H66.4ZM252,208a12,12,0,0,1-12,12H16a12,12,0,0,1,0-24H240A12,12,0,0,1,252,208Z"/></svg>
